!!!COM: Bach, Johann Sebastian
!!!OPR: Das wohltemperirte Clavier, Band I
!!!XEN: The Well-Tempered Clavier, Volume I
!!!OTL: Prelude in A Major
!!!OMV: Prelude XIX
!!!SCT: BWV 864
!!!SCA: Thematisch-systematisches Verzeichnis der musikalischen Werke Johann Sebastian Bach: Bach-Werke-Verzeichnis (Schmieder)
!!!YOR: Bach Gesellschaft Edition xiv
!!!ENC: Walter Hewlett
!!!CDT: 1685/3//-1750/7/28/
!!!OCY: Deutschland
!!!YEC: Copyright (c) 1994, 2000 Center for Computer Assisted Research in the Humanities
!!!YEM: Rights to all derivative editions reserved
!!!YEN: United States of America
**kern
*k[f#c#g#]
*A:
*M4/4
*MM84
=1-
*^
*^	*
16a\LL	2r	4AA\
16b\	.	.
16cc#\	.	.
16a\JJ	.	.
8ff#\L	.	4A\
8ff#\J	.	.
16ff#\LL	4r	4G#\
16dd#\J	.	.
8ee\J	.	.
16r	8r	4Gn\
16ee\LL	.	.
16ff#\	[8e/	.
16ggn\JJ	.	.
=2	=2	=2
16aa\LL	8e/L]	4F#\
16ggn\	.	.
16ff#\	8A/J	.
16aa\JJ	.	.
16dd\LL	8r	4B\
16cc#\	.	.
16b\	[8d/	.
16aa\JJ	.	.
16gg#\LL	8d/L]	4E\
16ff#\	.	.
16ee\	8G#/J	.
16gg#\JJ	.	.
16cc#\LL	8r	4A\
16b\	.	.
16a\	[8c#/	.
16ggn\JJ	.	.
=3	=3	=3
16ff#\LL	8c#/L]	4D\
16ee\	.	.
16dd\	16B/L	.
16ff#\JJ	16A/JJ	.
16b\LL	8.G#t/L	4E\
16ff#\	.	.
16ee\	.	.
16dd\JJ	16G#/Jk	.
16cc#\LL	8A/	8AA\L
16b\	.	.
16a\	8r	8A\
16b\JJ	.	.
16cc#\LL	4r	8G#\
16dd#\	.	.
16ee\	.	8F#\J
16ff#\JJ	.	.
=4	=4	=4
16gg#/LL	4r	16E\LL
16aa/	.	16F#\
16bb/	.	16G#\
16gg#/JJ	.	16E\JJ
16ee/LL	4ee\	8c#\L
16ff#/	.	.
16gg#/	.	8c#\J
16ee/JJ	.	.
16ff#/LL	4dd#\	16c#\LL
16gg#/	.	16A#\J
16aa/	.	8B\J
16ff#/JJ	.	.
8b/L	4ddn\	16r
.	.	16B\LL
[8bb/J	.	16c#\
.	.	16dn\JJ
=5	=5	=5
8bb/L]	4cc#\	16e\LL
.	.	16d\
8ee/J	.	16c#\
.	.	16e\JJ
8r	4ff#\	16A\LL
.	.	16G#\
[8aa/	.	16F#\
.	.	16e\JJ
8aa/L]	4b\	16d#\LL
.	.	16c#\
8dd#/J	.	16B\
.	.	16d#\JJ
8r	[4ee\	16G#\LL
.	.	16F#\
8gg#/	.	16E\
.	.	16dn\JJ
=6	=6	=6
16aa/LL	4ee\]	16c#\LL
16gg#/	.	16B\
16ff#/	.	16A\
16aa/JJ	.	16c#\JJ
16dd#/LL	4dd#\	16F#\LL
16aa/	.	16c#\
16gg#/	.	16B\
16ff#/JJ	.	16A\JJ
4ee/	8ee\L	16G#\LL
.	.	16F#\
.	8b\	16E\
.	.	16F#\JJ
8r	8ee\	16G#\LL
.	.	16A\
8ggn/	8ee\J	16B\
.	.	16c#\JJ
=7	=7	=7
8ggn/L	8ee\L	16d\LL
.	.	16e\
8ff#/J	8dd\J	16f#\
.	.	16d\JJ
8r	8r	16B\LL
.	.	16c#\
8ff#/	8dd\	16d\
.	.	16B\JJ
8ff#/L	8dd\L	16c#\LL
.	.	16d\
8ee/J	8cc#\J	16e\
.	.	16c#\JJ
8r	8r	16A\LL
.	.	16B\
8ee/	8cc#\	16c#\
.	.	16A\JJ
=8	=8	=8
8ee/L	8cc#\L	16B\LL
.	.	16c#\
8dd/J	8b\J	16d\
.	.	16B\JJ
8r	4r	16G#\LL
.	.	16A\
8dd/	.	16B\
.	.	16G#\JJ
8dd/L	16A/LL	[4A\
.	16B/	.
8cc#/J	16c#/	.
.	16A/JJ	.
4aa/	8f#\L	16A\LL]
.	.	16c#\
.	8f#\J	16A\
.	.	16F#\JJ
=9	=9	=9
4gg#/	16f#\LL	4c#\
.	16d#\J	.
.	8e\J	.
4ggn/	16r	16r
.	16e\LL	[8.e\
.	16f#\	.
.	16gn\JJ	.
4ff#/	16a\LL	8e\L]
.	16g\	.
.	16f#\	8A\J
.	16a\JJ	.
4bb/	16dn\LL	8r
.	16c#\	.
.	16B\	[8d\
.	16a\JJ	.
=10	=10	=10
4ee/	16g#\LL	8d\L]
.	16f#\	.
.	16e\	8G#\J
.	16g#\JJ	.
2aa/	16c#\LL	8r
.	16B\	.
.	16A\	8c#\
.	16gn\JJ	.
.	16f#\LL	8d\L
.	16e\	.
.	16d\	8B\J
.	16f#\JJ	.
[4gg#/	16B\LL	8r
.	16f#\	.
.	16e\	8E\
.	16d\JJ	.
=11	=11	=11
16gg#/LL]	4c#\	8A\L
16ff#/	.	.
16ee#/	.	8G#\
16gg#/JJ	.	.
2ff#/	16r	8A\
.	16een\LL	.
.	16dd\	8F#\J
.	16cc#\JJ	.
.	16b\LL	8G#\L
.	16a\	.
.	16g#\	8B\
.	16b\JJ	.
4ee#/	16c#\LL	8c#\
.	16dd\	.
.	16cc#\	8C#\J
.	16b\JJ	.
=12	=12	=12
16ff#/LL	4a\	8F#\L
16gg#/	.	.
16aa/	.	8FF#\J
16ff#/JJ	.	.
8dd/L	16r	4F#\
.	16cc#\LL	.
8dd/J	16b\	.
.	16a\JJ	.
16dd/LL	8.g#\L	4E#\
16b#/J	.	.
8cc#/J	.	.
.	16G#/Jk	.
16r	[4c#/	4En\
16cc#/LL	.	.
16dd/	.	.
16ee/JJ	.	.
=13	=13	=13
16ff#\LL	8c#/L]	4D#\
16ee\	.	.
16dd#\	8F#/J	.
16ff#\JJ	.	.
16b\LL	8r	4G#\
16a\	.	.
16g#\	[8B/	.
16ff#\JJ	.	.
16ee#\LL	8B/L]	4C#\
16dd#\	.	.
16cc#\	8E#/J	.
16bb\JJ	.	.
16aa\LL	8r	4F#\
16gg#\	.	.
16ff#\	[8A/	.
16ee#\JJ	.	.
=14	=14	=14
16ff#\LL	8A/L]	8D\L
16ee#\	.	.
16ff#\	16G#/L	8BB\J
16gg#\JJ	16F#/JJ	.
8.gg#t\Lxx	8E#/L	4C#\
.	8B/J	.
16ff#\Jk	.	.
4ff#/	16A/LL	4F#\
.	16dd\	.
.	16cc#\	.
.	16b\JJ	.
8r	16a\LL	4r
.	16g#\	.
8aa/	16f#\	.
.	16en\JJ	.
=15	=15	=15
8aa/L	4d#\	16r
.	.	16c#\LL
8gg#/J	.	16B\
.	.	16A\JJ
8r	8r	16G#\LL
.	.	16F#\
8gg#/	[8ee\	16E\
.	.	16A#\JJ
8gg#/L	16ee\LL]	4BB/
.	16ee\	.
8ff#/J	16dd#\	.
.	16cc#\JJ	.
8r	16b\LL	4r
.	16a\	.
8bb/	16g#\	.
.	16f#\JJ	.
=16	=16	=16
8bb/L	4e\	16r
.	.	16d#\LL
8aa/J	.	16c#\
.	.	16B\JJ
8r	8r	16A\LL
.	.	16G#\
8aa/	[8ff#\	16F#\
.	.	16d#\JJ
8aa/L	16ff#\LL]	4E\
.	16ff#\	.
8gg#/J	16ee\	.
.	16ddn\JJ	.
8r	16cc#\LL	4r
.	16b\	.
8ee/	16a\	.
.	16g#\JJ	.
=17	=17	=17
8ee/L	4f#\	16r
.	.	16e\LL
8a/	.	16dn\
.	.	16c#\JJ
8dd/	8r	16B\LL
.	.	16A\
8dd/J	8b\	16G#\
.	.	16B\JJ
8dd/L	8b\L	16AA/LL
.	.	16BB/
8cc#/J	8e\J	16C#/
.	.	16AA/JJ
16r	4a\	8F#\L
16ee/LL	.	.
16dd/	.	8F#\J
16cc#/JJ	.	.
=18	=18	=18
16b/LL	4g#\	16F#\LL
16cc#/	.	16D#\J
16dd/	.	8E\J
16b/JJ	.	.
8e/L	4gn\	16r
.	.	16E\LL
[8ee/J	.	16F#\
.	.	16Gn\JJ
8ee/L]	4f#\	16A\LL
.	.	16G\
8a/J	.	16F#\
.	.	16A\JJ
8r	4b\	16Dn\LL
.	.	16C#\
[8dd/	.	16BB\
.	.	16A\JJ
=19	=19	=19
8dd/L]	4e\	16G#\LL
.	.	16F#\
8g#/J	.	16E\
.	.	16G#\JJ
8r	2a\	16C#\LL
.	.	16BB\
8cc#/	.	16AA\
.	.	16Gn\JJ
16dd/LL	.	16F#\LL
16cc#/	.	16E\
16b/	.	16D\
16cc#/JJ	.	16F#\JJ
16dd/LL	4g#\	16BB\LL
16cc#/	.	16F#\
16dd/	.	16E\
16ee/JJ	.	16D\JJ
=20	=20	=20
16a/LL	4a\	16C#\LL
16b/	.	16BB\
16cc#/	.	16AA\
16a/JJ	.	16C#\JJ
8ff#\L	4A/	16D\LL
.	.	16E\
8ff#\J	.	16D\
.	.	16C#\JJ
16ff#\LL	4G#/	16BB\LL
16dd#\J	.	16AA\
8ee\J	.	16GG#\
.	.	16BB\JJ
16r	4Gn/	8C#\L
16ee\LL	.	.
16ff#\	.	[8E\J
16ggn\JJ	.	.
=21	=21	=21
16aa\LL	4F#/	8E\L]
16ggn\	.	.
16ff#\	.	8AA\J
16aa\JJ	.	.
16dd\LL	4B/	8r
16cc#\	.	.
16b\	.	[8D\
16aa\JJ	.	.
16gg#\LL	4E/	8D\L]
16ff#\	.	.
16ee\	.	8GG#\J
16gg#\JJ	.	.
16cc#\LL	4A/	8r
16b\	.	.
16a\	.	[8C#\
16ggn\JJ	.	.
=22	=22	=22
16ff#\LL	[4D/	8C#\L]
16ee\	.	.
16dd\	.	16BB\L
16ff#\JJ	.	16AA\JJ
16b\LL	16D/LL]	4GG#\
16ff#\	16D/	.
16ee\	16C#/	.
16dd\JJ	16BB/JJ	.
16cc#\LL	16AA/LL	8AA\
16b\	16BB/	.
16a\	16C#/	8r
16cc#\JJ	16AA/JJ	.
16f#/LL	16D/LL	4r
16e/	16E/	.
16d/	16F#/	.
16f#/JJ	16D/JJ	.
=23	=23	=23
16B/LL	16G#/LL	2r
16c#/	16A/	.
16d/	16G#/	.
16e/JJ	16F#/JJ	.
16f#/LL	16E/LL	.
16g#/	16d/	.
16a/	16c#/	.
16b/JJ	16B/JJ	.
16cc#\LL	16A/	16r
16dd\	16r	16F#\LL
16ee\	8r	16E\
16ff#\JJ	.	16D\JJ
16gg#\LL	4r	16C#\LL
16aa\	.	16BB\
16bb\	.	16AA\
16gg#\JJ	.	16GG#\JJ
=24	=24	=24
[4aa/	16r	16FF#/LL
.	16gg#\LL	16EE/J
.	16ff#\	8DD/J
.	16ee\JJ	.
8.aa/L]	16dd\LL	8EE/L
.	16cc#\J	.
.	8b\J	8E/J
16gg#/Jk	.	.
2aa;/	2cc#\	2AA;/
==|!;	==|!;	==|!;
*-	*-	*-
!!!END: 1994/01/18/
!!!KEY: 2867120518
!!!EMD: Converted from MuseData to Humdrum Dec 19, 2000, by Andreas Kornstaedt using muse2kern.
